!!!OTL: WO SOLL ICH MICH HINWENDEN
!!!ARE: Europa, Mitteleuropa, Deutschland, Bergisches Land; Kleve
!!!SCT: E1365
!!!YEM: Copyright 1995, estate of Helmut Schaffrath.
**kern
*ICvox
*Ivox
*M4/4
*k[f#c#g#d#]
*E:
{8e
8g#
=1
4b
4b
4g#
8ee
8cc#
=2
4.b
16a
16g#
4f#}
{4a
=3
4g#
8a
8f#
4e
4d#
=4
2e
4r}
{8e
8g#
=5
4b
4b
4g#
8ee
8cc#
=6
4.b
16a
16g#
4f#}
{4a
=7
4g#
8a
8f#
4e
4d#
=8
2e
4r}
{8d#
8e
=9
4f#
4f#
8g#
8f#
8e
8f#
=10
2g#
4r}
{8e
8f#
=11
4g#
4g#
8b
8a
8g#
8a
=12
2b
4r}
{8e
8g#
=13
4b
4b
4g#
8ee
8cc#
=14
4.b
16a
16g#
4f#}
{4a
=15
4g#
8a
8f#
4e
4d#
=16
2e
4r}
==
!!!AGN: Staende -, Soldaten - Lied, anti - Kriegs - Lied
!!!ONB: ESAC (Essen Associative Code) Database: ERK3
!!!AMT: simple quadruple
!!!AIN: vox
!!!EED: Helmut Schaffrath
!!!EEV: 1.0
*-
